X: 42
T: Missa L'homme arm\'e / Gloria
N: Derived from Ock1008b-Missa_Lhomme_arme-Gloria.krn
C: Johannes Ockeghem
%%abc-version 2.0
%%abcx-abcm2ps-target-version 5.9.1 (29 Sep 2008)
%%abc-creator hum2abc beta
%%abcx-conversion-date 2019/02/17 07:26:14
%%abc-edited-by Jesse Rodin
%%abc-edited-by Jesse Rodin; Victoria Chang 2012/03/01
%%abcx-initial-encoding-date 2012/03/01/
%%humdrum-veritas 393864521
%%humdrum-veritas-data 649861019
%%linebreak <none>
%%barnumbers 0
L: 1/4
M: 3/1
Q: 1/2=120
%%staves [1 2 3 4]
V: 1 clef=treble
V: 2 clef=treble-8
V: 3 clef=treble-8
V: 4 clef=bass
K: C
[V:1] G4G4G4 | 
[V:2] d8d4 | 
[V:3] G8G4 :
[V:4] G,4G,4G,4 | 
[V:1] A4G4c4 | 
[V:2] e6c2e4 | 
[V:3] c8c4 | 
[V:4] C,12 | 
[V:1] d4e6dc | 
[V:2] d4c4z4 | 
[V:3] B4A8 :
[V:4] G,4C8 | 
[V:1] B4c2d3cA2 | 
[V:2] g8f4 | 
[V:3] G8z4 | 
[V:4] D8B,4 | 
[V:1] G2c2d2B3AB2 | 
[V:2] e4d8 | 
[V:3] z12 :
[V:4] C4G,8 | 
[V:1] c6B2G4 | 
[V:2] c4A2B4c2 | 
[V:3] z12 | 
[V:4] [M:3/1](3:2:8C,2F,2G,2A,4G, F,G,2E,4 | 
[V:1] F3GA2_B2A2d2- | 
[V:2] d3cA2G2D4 | 
[V:3] z4d4d4 :
[V:4] [M:3/1]D,3E,F,2G,2A,2F,2 | 
[V:1] d2G4A2B3G | 
[V:2] z12 | 
[V:3] G4z4z4 | 
[V:4] _B,4A,G,D6 | 
[V:1] A2c3BA3G/F/G2 | 
[V:2] z4z4d4 | 
[V:3] z12 :
[V:4] C2A,4C2_B,4 | 
[V:1] A8B3G | 
[V:2] e4f4d2g2- | 
[V:3] z4d4d4 | 
[V:4] A,4F,4G,4 | 
[V:1] B2A4F3GE2 | 
[V:2] gff2g2a3gg2 | 
[V:3] d4c8 :
[V:4] D,4z2F,3E,C,2 | 
[V:1] D4C4z4 | 
[V:2] d2g3fg2a2f2 | 
[V:3] B4A8 | 
[V:4] G,4z4F,4 | 
[V:1] D4G4F2A2- | 
[V:2] g6fed2e2 | 
[V:3] G8z4 :
[V:4] _B,3CD_ED3B,C2 | 
[V:1] A2B3GG4^F2 | 
[V:2] f2d4e2c4 | 
[V:3] z12 | 
[V:4] D2G,2=B,2C2A,4 | 
[V:1] G4z4B4 | 
[V:2] z4z4f4 | 
[V:3] d4d4d4 :
[V:4] G,8z4 | 
[V:1] d4d4d4 | 
[V:2] g6fed4 | 
[V:3] G8z4 | 
[V:4] B,4B,4B,4 | 
[V:1] e4d6c2 | 
[V:2] c4B4e4 | 
[V:3] g8g4 :
[V:4] C4G,4C4- | 
[V:1] c6A2B4 | 
[V:2] c4z4z4 | 
[V:3] f8f4 | 
[V:4] C4D8 | 
[V:1] c4c4B4 | 
[V:2] e8d4 | 
[V:3] g8g4 :
[V:4] C6B,2G,4 | 
[V:1] A2d3cA3GF2 | 
[V:2] f2g2a4z4 | 
[V:3] d8z4 | 
[V:4] z4D8 | 
[V:1] E4z4c4 | 
[V:2] z4e8 | 
[V:3] g8g4 :
[V:4] C12 | 
[V:1] B4A6GA | 
[V:2] d4D8 | 
[V:3] f8f4 | 
[V:4] D12 | 
[V:1] B8B4 | 
[V:2] d8e4 | 
[V:3] g8g4 :
[V:4] G,12 | 
[V:1] A4d6c2 | 
[V:2] f4_B8 | 
[V:3] d8z4 | 
[V:4] z4z4D4 | 
[V:1] c4B6A2 | 
[V:2] A4G8 | 
[V:3] z12 :
[V:4] E8D4 | 
[V:1] A4G2F2D4 | 
[V:2] A4d4z4 | 
[V:3] z8g4 | 
[V:4] C4B,8 | 
[V:1] C6A,2B,2C2 | 
[V:2] f4e8 | 
[V:3] a8g4 :
[V:4] A,6G,F,E,2C,2 | 
[V:1] A,4z4z4 | 
[V:2] d2c4d2A4 | 
[V:3] f4e8 | 
[V:4] D,2A,4B,2C4 | 
[V:1] z4z2D2C3D | 
[V:2] D4z2A2G3A | 
[V:3] d8z4 :
[V:4] F,2G,A,_B,A,G,F,E,3F, | 
[V:1] E2F3GA2B2c2 | 
[V:2] B2c3Ad4c2 | 
[V:3] z12 | 
[V:4] G,2A,3G,F,2E,4 | 
[V:1] F3GA2B2c3d | 
[V:2] d3ef2g2a4 | 
[V:3] z12 :
[V:4] D,4z4z4 | 
[V:1] ed/e/f3dd4^c2 | 
[V:2] g2a4f2e4 | 
[V:3] z12 | 
[V:4] z4z4A,4 | 
[V:1] d12 | 
[V:2] d6cBA2_B2- | 
[V:3] z12 :
[V:4] _B,6A,G,F,2G,2- | 
[V:1] z4z4d4 | 
[V:2] B2A2_B2G2^F3E | 
[V:3] z12 | 
[V:4] G,F,D,3_B,,C,2D,4 | 
[V:1] B8d4 | 
[V:2] G4g8 | 
[V:3] G8G4 :
[V:4] D8B,4 | 
[V:1] c4A8 | 
[V:2] e4f8 | 
[V:3] c8c4 | 
[V:4] A,4F,4A,4 | 
[V:1] z4A6B2 | 
[V:2] e4d6cd | 
[V:3] B4A8 :
[V:4] G,4F,8 | 
[V:1] c4c2B2G4 | 
[V:2] efgfedd4^c2 | 
[V:3] G8z4 | 
[V:4] E,2C,4D,2E,4 | 
[V:1] F3G_B2A4G2 | 
[V:2] d2A3GA2_B4 | 
[V:3] d4d4G4 :
[V:4] D,8z4 | 
[V:1] A4z4A4 | 
[V:2] A8z4 | 
[V:3] z4d4d4 | 
[V:4] D,12 | 
[V:1] _B4A6G2 | 
[V:2] f8f4 | 
[V:3] d4c8 :
[V:4] _B,,4F,8 | 
[V:1] G4F2A4D2 | 
[V:2] d4d3ef3e/d/ | 
[V:3] B4A8 | 
[V:4] G,4D,3C,D,E,F,G, | 
[V:1] E3DF3GAG/A/_B2- | 
[V:2] c3Bd3efe/f/g2- | 
[V:3] G4A3Bc2_Bc :
[V:4] E,4D,4A,2G,2- | 
[V:1] B2A3GG4^F2 | 
[V:2] g2f3ed2d3c | 
[V:3] d4=B2G2A4 | 
[V:4] G,2D,3E,G,2D,4 | 
[V:1] G12 ||  
[V:2] d4d8 ||  
[V:3] G12 ||  
[V:4] G,12 ||  
[V:1] [M:2/1]G8 | 
[V:2] [M:2/1]z8 | 
[V:3] [M:2/1]z8 :
[V:4] [M:2/1]G,8 | 
[V:1] D4D4 | 
[V:2] z8 | 
[V:3] z8 :
[V:4] G,4G,4 | 
[V:1] G4G4 | 
[V:2] z8 | 
[V:3] z8 | 
[V:4] E,4E,4 | 
[V:1] A2B2c2d2 | 
[V:2] z8 | 
[V:3] z8 :
[V:4] F,4F,4 | 
[V:1] B8- | 
[V:2] z8 | 
[V:3] z4G4- :
[V:4] G,4z4 | 
[V:1] B8 | 
[V:2] g8 | 
[V:3] G4G4 | 
[V:4] z8 | 
[V:1] z8 | 
[V:2] g4g4 | 
[V:3] c8 :
[V:4] z8 | 
[V:1] z8 | 
[V:2] e4d4 | 
[V:3] c4B4 :
[V:4] z8 | 
[V:1] c6BA | 
[V:2] f8 | 
[V:3] A8 | 
[V:4] z8 | 
[V:1] B4G4 | 
[V:2] g2f2d4 | 
[V:3] G8 :
[V:4] z8 | 
[V:1] c8 | 
[V:2] e4z4 | 
[V:3] z8 :
[V:4] C,4F,4 | 
[V:1] B4A4- | 
[V:2] G4c4 | 
[V:3] z8 | 
[V:4] G,4A,4- | 
[V:1] A4G4 | 
[V:2] d4e4- | 
[V:3] z8 :
[V:4] A,2G,F,E,4 | 
[V:1] c4d4 | 
[V:2] e2dcB4 | 
[V:3] z8 :
[V:4] z4G,4 | 
[V:1] e6dc | 
[V:2] A4G4 | 
[V:3] z8 | 
[V:4] C4D4 | 
[V:1] B4c4 | 
[V:2] z4g4- | 
[V:3] z8 :
[V:4] E6DC | 
[V:1] d4c4- | 
[V:2] g8- | 
[V:3] z8 :
[V:4] B,4C4 | 
[V:1] c4B4 | 
[V:2] g4f4 | 
[V:3] z8 | 
[V:4] D8 | 
[V:1] c6d2 | 
[V:2] e8 | 
[V:3] z8 :
[V:4] C6B,2 | 
[V:1] B8 | 
[V:2] z4d4 | 
[V:3] z8 :
[V:4] G,8- | 
[V:1] D4G4- | 
[V:2] g4z4 | 
[V:3] z8 | 
[V:4] G,8 | 
[V:1] G2A2B4 | 
[V:2] c4d4 | 
[V:3] z8 :
[V:4] z4G,4 | 
[V:1] c4B4- | 
[V:2] c4d4 | 
[V:3] z8 :
[V:4] A,4G,4 | 
[V:1] B4A4- | 
[V:2] z4c4 | 
[V:3] z8 | 
[V:4] A,8 | 
[V:1] A2^F2^G4 | 
[V:2] d8 | 
[V:3] z8 :
[V:4] B,8 | 
[V:1] A8- | 
[V:2] f4e4 | 
[V:3] z8 :
[V:4] A,8 | 
[V:1] A8 | 
[V:2] d4f4- | 
[V:3] z4d4 | 
[V:4] D,8 | 
[V:1] z8 | 
[V:2] f4g4 | 
[V:3] d4G4 :
[V:4] z8 | 
[V:1] z8 | 
[V:2] f4a4- | 
[V:3] z8 :
[V:4] D8 | 
[V:1] z8 | 
[V:2] a2g2g4 | 
[V:3] z8 | 
[V:4] C4B,4 | 
[V:1] z8 | 
[V:2] e4d4- | 
[V:3] z8 :
[V:4] G,8 | 
[V:1] z8 | 
[V:2] d4a4- | 
[V:3] z8 :
[V:4] D6CD | 
[V:1] z8 | 
[V:2] a2g2f4 | 
[V:3] z8 | 
[V:4] E4D4- | 
[V:1] z8 | 
[V:2] e8 | 
[V:3] z8 :
[V:4] D4^C4 | 
[V:1] z8 | 
[V:2] f8 | 
[V:3] z4d4 :
[V:4] D8 | 
[V:1] z8 | 
[V:2] d4f4 | 
[V:3] d4d4 | 
[V:4] z8 | 
[V:1] z8 | 
[V:2] g4a4- | 
[V:3] c8- :
[V:4] z8 | 
[V:1] z8 | 
[V:2] a2g2g4- | 
[V:3] c4B4 :
[V:4] z8 | 
[V:1] c8 | 
[V:2] g4^f4 | 
[V:3] A8 | 
[V:4] z8 | 
[V:1] B6c2 | 
[V:2] g8 | 
[V:3] G8 :
[V:4] D8- | 
[V:1] d6cB | 
[V:2] f6d2 | 
[V:3] z8 :
[V:4] D4B,4 | 
[V:1] A4G4- | 
[V:2] e4d4 | 
[V:3] z8 | 
[V:4] C4B,4 | 
[V:1] G4B4 | 
[V:2] g8 | 
[V:3] z8 :
[V:4] G,6E,2 | 
[V:1] A4G4 | 
[V:2] z8 | 
[V:3] d4d4 :
[V:4] F,4G,4 | 
[V:1] d6B2 | 
[V:2] f4g4- | 
[V:3] d8 | 
[V:4] D,4G,4 | 
[V:1] B6G2 | 
[V:2] g2fed4 | 
[V:3] G8 :
[V:4] z4B,4 | 
[V:1] A4B4 | 
[V:2] e2f4g2 | 
[V:3] z8 :
[V:4] C2D4B,2 | 
[V:1] c4d4 | 
[V:2] a2f2g4 | 
[V:3] z8 | 
[V:4] A,4G,4 | 
[V:1] c4e4- | 
[V:2] e6c2 | 
[V:3] g8 :
[V:4] C8 | 
[V:1] e2c2c4- | 
[V:2] c4z4 | 
[V:3] g4f4- :
[V:4] E4F4 | 
[V:1] c4B4 | 
[V:2] d4f4 | 
[V:3] f4f4 | 
[V:4] D8 | 
[V:1] c4d4 | 
[V:2] e4d4- | 
[V:3] g8 :
[V:4] C4B,4 | 
[V:1] B8 | 
[V:2] d4g4 | 
[V:3] g4d4- :
[V:4] G,8 | 
[V:1] z4B4 | 
[V:2] f4d4- | 
[V:3] d4z4 | 
[V:4] D8 | 
[V:1] d8 | 
[V:2] d4B4 | 
[V:3] g8 :
[V:4] B,4G,4- | 
[V:1] d4d4 | 
[V:2] G4d4 | 
[V:3] g4f4- :
[V:4] G,4B,4 | 
[V:1] c8 | 
[V:2] z4c4 | 
[V:3] f4f4 | 
[V:4] A,8 | 
[V:1] B8 | 
[V:2] d8 | 
[V:3] g8 :
[V:4] G,8 | 
[V:1] G4A4- | 
[V:2] c4f4 | 
[V:3] e4d4- :
[V:4] z8 | 
[V:1] A4c4- | 
[V:2] a6g2 | 
[V:3] d4z4 :
[V:4] F,8- | 
[V:1] c2B2G4 | 
[V:2] f4e4- | 
[V:3] z8 :
[V:4] F,4C4- | 
[V:1] A4B4- | 
[V:2] e4d4- | 
[V:3] z8 | 
[V:4] C4B,4 | 
[V:1] B4A4- | 
[V:2] d4c4 | 
[V:3] z8 :
[V:4] G,4A,4 | 
[V:1] A4G4 | 
[V:2] d6cB | 
[V:3] z8 :
[V:4] B,8 | 
[V:1] F4E4- | 
[V:2] c8 | 
[V:3] z8 | 
[V:4] A,8 | 
[V:1] E4D4 | 
[V:2] z4d4 | 
[V:3] z8 :
[V:4] G,4F,4 | 
[V:1] C8 | 
[V:2] e8 | 
[V:3] z4g4 :
[V:4] E,8 | 
[V:1] z8 | 
[V:2] f6d2 | 
[V:3] a8 | 
[V:4] D,8 | 
[V:1] z8 | 
[V:2] edcBA2d2- | 
[V:3] g4f4 :
[V:4] z8 | 
[V:1] z8 | 
[V:2] dcd2e2^c2 | 
[V:3] e8 :
[V:4] z8 | 
[V:1] [M:3/1]F12 | 
[V:2] [M:3/1]d8c4 | 
[V:3] [M:3/1]d12 | 
[V:4] [M:3/1]D,8E,4 | 
[V:1] D8D4 | 
[V:2] A4B8 | 
[V:3] z12 :
[V:4] F,4G,8 | 
[V:1] E6F2G4 | 
[V:2] G8c4- | 
[V:3] z12 :
[V:4] C,12 | 
[V:1] A8A4 | 
[V:2] c4d8 | 
[V:3] z12 | 
[V:4] F,12 | 
[V:1] G4F8 | 
[V:2] c4A4B4 | 
[V:3] [M:3/1]z12 :
[V:4] E,4D,8 | 
[V:1] E8G4- | 
[V:2] c8d4 | 
[V:3] G8G4 :
[V:4] C,12 | 
[V:1] G4A8 | 
[V:2] e12 | 
[V:3] c8c4 | 
[V:4] z12 | 
[V:1] G4A4c4 | 
[V:2] d4f8 | 
[V:3] B4A8 :
[V:4] z12 | 
[V:1] B12 | 
[V:2] g12 | 
[V:3] G12 :
[V:4] z4z4G,4 | 
[V:1] d8G4 | 
[V:2] z12 | 
[V:3] z12 | 
[V:4] G,6A,2B,4 | 
[V:1] G6A2B4 | 
[V:2] z12 | 
[V:3] z12 :
[V:4] C4D8 | 
[V:1] c6BAG4 | 
[V:2] z4z4c4 | 
[V:3] z12 :
[V:4] A,6G,F,E,4 | 
[V:1] A4B8 | 
[V:2] c6d2e4 | 
[V:3] z12 | 
[V:4] F,4G,8 | 
[V:1] A8G4 | 
[V:2] f8e4 | 
[V:3] z12 :
[V:4] F,8C,4 | 
[V:1] A4B8 | 
[V:2] d6c2B4 | 
[V:3] z12 :
[V:4] F,4G,8 | 
[V:1] c6B4A2 | 
[V:2] A4G4A4- | 
[V:3] z12 | 
[V:4] A,4E,4F,4 | 
[V:1] A8G4 | 
[V:2] A4B8 | 
[V:3] d4d4G4 :
[V:4] D,4G,8 | 
[V:1] ^F8A4 | 
[V:2] A12 | 
[V:3] z4d4d4 :
[V:4] D,8F,4 | 
[V:1] B4c6B2 | 
[V:2] z4e8 | 
[V:3] d4c8 | 
[V:4] G,4A,8 | 
[V:1] G4A8 | 
[V:2] e4d6c2 | 
[V:3] B4A8 :
[V:4] G,4F,8 | 
[V:1] E4F4A4- | 
[V:2] c4B4A4 | 
[V:3] G4d8 :
[V:4] E,4D,8 | 
[V:1] A4G4c4- | 
[V:2] c8g4- | 
[V:3] e4e6d2 | 
[V:4] C,12 | 
[V:1] c2B2G8 | 
[V:2] g4e8 | 
[V:3] B4c8 :
[V:4] E,12 | 
[V:1] B4A8 | 
[V:2] f8e4 | 
[V:3] d8B4 :
[V:4] D,8E,4- | 
[V:1] G6E2^F4 | 
[V:2] c4d8 | 
[V:3] G4A8 | 
[V:4] E,4D,8 | 
[V:1] G12 |]  
[V:2] d12 |]  
[V:3] G12 |]  
[V:4] G,12 |]  



